src/actions/22/akonadiconsole.svg

<svg version="1.1" viewBox="0 0 22 22" xmlns="http://www.w3.org/2000/svg">
 <defs>
  <style id="current-color-scheme" type="text/css">.ColorScheme-Text {
        color:#363636;
      }</style>
 </defs>
 <path class="ColorScheme-Text" d="m6.707 7-0.70703 0.70703 1.793 1.793-1.793 1.793 0.70703 0.70703 2.5-2.5-0.20703-0.20703zm3.293 3.998v1h4v-1z" fill="currentColor"/>
 <path d="m5 3c-1.662 0-3 1.338-3 3v10c0 1.662 1.338 3 3 3h12c1.662 0 3-1.338 3-3v-10c0-1.662-1.338-3-3-3h-12zm0 1h12c1.108 0 2 0.892 2 2v10c0 1.108-0.892 2-2 2h-12c-1.108 0-2-0.892-2-2v-10c0-1.108 0.892-2 2-2z" class="ColorScheme-Text" fill="currentColor"/>
</svg>

<svg xmlns="http://www.w3.org/2000/svg" viewBox="0 0 22 22">
    <defs>
        <style id="current-color-scheme" type="text/css">
            .ColorScheme-Text{color:#050505;opacity:.7}
        </style>
    </defs>
    <path fill="currentColor" d="M6.707 7 6 7.707 7.793 9.5 6 11.293l.707.707 2.5-2.5L9 9.293zM10 10.998v1h4v-1z" class="ColorScheme-Text"/>
    <path fill="currentColor" d="M5 3C3.338 3 2 4.338 2 6v10c0 1.662 1.338 3 3 3h12c1.662 0 3-1.338 3-3V6c0-1.662-1.338-3-3-3H5zm0 1h12c1.108 0 2 .892 2 2v10c0 1.108-.892 2-2 2H5c-1.108 0-2-.892-2-2V6c0-1.108.892-2 2-2z" class="ColorScheme-Text"/>
</svg>
